X:1
T:Blind Bartimeus
T:Blind Bartimeus
T:Philip Philips
T:Frances Jane (Fanny) Crosby, 1874
T:Public Domain Courtesy of the Cyber Hymnal™
C:Philip Philips
Z:Public Domain
Z:Courtesy of the Cyber Hymnal™
%%score ( 1 2 ) ( 3 4 )
L:1/8
Q:1/4=108
M:4/4
K:Ab
V:1 treble 
V:2 treble 
V:3 bass 
V:4 bass 
V:1
 [EA]3 [EB] [Ec]2 E2 | [DF]2 [EG]2 [EA]4 | [Fd]2 [Ec]2 [DB]2 [CA]2 | [EG]2 [EA]2 [EB]4 | %4
w: 1.~Son of Dav- id!|hear my cry;|Sav- ior, do not|pass me by;|
w: 2.~Though the proud my|voice would still,|They may chide me|if they will,|
w: 3.~Though des- pised by|all but Thee,|Thou a bless- ing|hast for me;|
w: 4.~Glor- ious vi- sion!|heav’n- ly ray!|All my gloom has|passed a- way;|
 [Ec]3 [DB] [CA]2 E2 | [DF]2 ([EG][FA]) [CE]4 | [CE]3 [DE] [CA]2 [Fd]2 | (cA) [EB]2 [EA]4 | %8
w: Touch these eye- lids|veiled in * night,|Turn their dark- ness|in- * to light.|
w: Yet the more I’ll|pray for * grace,|On- ly here shall|be * my place.|
w: Faith and prayer can|nev- er * fail,|Lord, with Thee I|must * pre- vail,|
w: Now my joy- ful|eye doth * see,|And my soul still|clings * to Thee,|
 [Ec]3 [Ed] [Ee]2 [Ec]2 | [EA]2 [EB]2 [Ec]4 | [Ec]2 [EA]2 [DE]2 [CA]2 | (cA) [EB]2 [EA]4 |] %12
w: Son of Dav- id,|hear my cry!|Sav- ior, do not|pass * me by.|
w: Son of Dav- id,|hear my cry!|Sav- ior, do not|pass * me by.|
w: Son of Dav- id,|hear my cry!|Sav- ior, do not|pass * me by.|
w: Thine the glor- y|ev- er- more,|Mine to wor- ship|and * a- dore.|
V:2
 x6 E2 | x8 | x8 | x8 | x6 E2 | x8 | x8 | E2 x6 | x8 | x8 | x8 | E2 x6 |] %12
V:3
 [A,,C]3 [E,G,] A,2 [C,A,]2 | [D,A,]2 [E,D]2 [A,,C]4 | [A,,A,]2 [A,,A,]2 [E,G,]2 [F,A,]2 | %3
 [E,B,]2 [E,C]2 [E,G,]4 | A,3 [E,G,] [F,A,]2 [C,A,]2 | [D,A,]2 [D,A,]2 [A,,A,]4 | %6
 [A,,A,]3 [E,G,] [F,A,]2 [D,A,]2 | (A,C) [E,D]2 [A,C]4 | A,3 [A,B,] [A,C]2 [A,,A,]2 | %9
 [C,A,]2 [E,G,]2 A,4 | [A,,A,]2 [C,A,]2 [E,G,]2 [F,A,]2 | (A,C) [E,D]2 [A,C]4 |] %12
V:4
 x4 A,2 x2 | x8 | x8 | x8 | A,3 x5 | x8 | x8 | E,2 x6 | A,3 x5 | x8 | x8 | E,2 x6 |] %12

